#define im_width 64
#define im_height 64
static char im_bits[] = {
0xff,0xff,0xff,0xff,0xff,0xff,0xff,0xff,0xff,0xff,0xff,0xff,0xff,0xff,0xff,
0xff,0xff,0xff,0xff,0xff,0xff,0xff,0xff,0xff,0xff,0xff,0xa5,0xff,0xff,0x97,
0xff,0xff,0xff,0x7f,0x00,0xfc,0xff,0x01,0xfc,0xff,0xff,0x1f,0x3e,0xfc,0x7f,
0x78,0xf0,0xff,0xff,0x0f,0x7f,0xfc,0x3f,0xfe,0xe1,0xff,0xff,0x8f,0x7f,0xfc,
0x3f,0xfe,0xe3,0xff,0xff,0xc7,0xff,0xfc,0x1f,0xff,0xc3,0xff,0xff,0xc3,0xff,
0xff,0x0f,0xff,0xc7,0xff,0xff,0xe3,0xff,0xff,0x8f,0xff,0x87,0xff,0xff,0xe3,
0xff,0xff,0x8f,0xff,0x87,0xff,0xff,0xe1,0xff,0xff,0x8f,0xff,0x87,0xff,0xff,
0xe3,0xff,0xff,0x87,0xff,0x87,0xff,0xff,0xe1,0xff,0xff,0x87,0xff,0x8f,0xff,
0xff,0xe1,0xff,0xff,0x8f,0xff,0x87,0xff,0xff,0xf1,0xff,0xff,0x87,0xff,0x8f,
0xff,0xff,0xe3,0xff,0xff,0x87,0xff,0x07,0xff,0xff,0xe1,0xff,0xff,0x8f,0xff,
0x8f,0xff,0xff,0xe1,0xff,0xff,0x07,0xff,0x87,0xff,0xff,0xe3,0xff,0xff,0x8f,
0xff,0x87,0xff,0xff,0xc3,0xff,0xff,0x0f,0xff,0xc7,0xff,0xff,0xc3,0xff,0xfd,
0x0f,0xff,0xc7,0xff,0xff,0xc3,0xff,0xfc,0x1f,0xff,0xc3,0xff,0xff,0x87,0x7f,
0xfc,0x1f,0xfe,0xe3,0xff,0xff,0x8f,0x7f,0xfc,0x3f,0xfc,0xf1,0xff,0xff,0x0f,
0x1e,0xfc,0x7f,0x78,0xf8,0xff,0xff,0x3f,0x00,0xfe,0xff,0x00,0xfc,0xff,0xff,
0xff,0xd5,0xff,0xff,0xd7,0xff,0xff,0xff,0xff,0xff,0xff,0xff,0xff,0xff,0xff,
0xff,0xff,0xff,0xff,0xff,0xff,0xff,0xff,0xff,0xff,0xff,0xff,0xff,0xff,0xff,
0xff,0xff,0xff,0xff,0xff,0xff,0xff,0xff,0xff,0xff,0xff,0xff,0xff,0xff,0xff,
0xff,0xff,0xff,0xff,0xff,0xff,0xff,0xff,0xff,0xff,0x7f,0xf5,0xff,0x93,0xff,
0x07,0xfc,0xff,0x7f,0xe0,0xff,0x03,0xff,0x21,0xe0,0xff,0xff,0xc0,0xff,0xc1,
0xff,0xf8,0xe3,0xff,0xff,0xc0,0xff,0xc1,0x7f,0xfc,0xc3,0xff,0xff,0xc4,0xff,
0xc0,0x3f,0xfc,0x87,0xff,0xff,0x89,0xff,0xc4,0x3f,0xfe,0x0f,0xff,0xff,0x84,
0xff,0xc4,0x1f,0xfe,0x0f,0xff,0xff,0x89,0x7f,0xc6,0x1f,0xfe,0x0f,0xff,0xff,
0x1c,0x7f,0xc6,0x1f,0xff,0x1f,0xff,0xff,0x19,0x3f,0xc6,0x1f,0xff,0x0f,0xff,
0xff,0x18,0x3f,0xc7,0x0f,0xff,0x1f,0xfe,0xff,0x39,0x3e,0xc7,0x1f,0xfe,0x1f,
0xff,0xff,0x3c,0x9e,0xc7,0x1f,0xff,0x1f,0xfe,0xff,0x39,0x9c,0xc3,0x0f,0xff,
0x1f,0xff,0xff,0x78,0x8c,0xc7,0x1f,0xfe,0x0f,0xfe,0xff,0x79,0xcc,0xc7,0x0f,
0xff,0x1f,0xff,0xff,0x7c,0xc8,0xc7,0x1f,0xfe,0x1f,0xff,0xff,0xf9,0xe0,0xc7,
0x1f,0xfe,0x0f,0xff,0xff,0xf8,0xe0,0xc7,0x1f,0xfe,0x8f,0xff,0xff,0xf9,0xf1,
0xc3,0x3f,0xfe,0x8f,0xff,0xff,0xfc,0xf1,0xc7,0x3f,0xfc,0x87,0xff,0xff,0xf8,
0xf9,0xc7,0x7f,0xf8,0xc7,0xff,0xff,0xf8,0xff,0x83,0x7f,0xf8,0xe3,0xff,0x7f,
0xf0,0xff,0x81,0xff,0x41,0xf0,0xff,0xbf,0xea,0xff,0x15,0xff,0x03,0xfc,0xff,
0xff,0xff,0xff,0xff,0xff,0xff,0xff,0xff,0xff,0xff,0xff,0xff,0xff,0xff,0xff,
0xff,0xff,0xff,0xff,0xff,0xff,0xff,0xff,0xff,0xff,0xff,0xff,0xff,0xff,0xff,
0xff,0xff
};
